flaticon/sport/ping-pong-1.svg

<svg xmlns="http://www.w3.org/2000/svg" width="32" height="32" viewBox="0 0 24 24">
    <path d="M 21.5 2.359375 C 18.792969 -0.351562 14.1875 -0.761719 10.210938 1.3125 C 9.484375 0.6875 8.570312 0.34375 7.605469 0.34375 C 6.535156 0.34375 5.527344 0.757812 4.773438 1.515625 C 3.222656 3.0625 3.214844 5.574219 4.738281 7.140625 C 4.417969 7.933594 4.230469 8.738281 4.175781 9.542969 C 4.167969 9.574219 4.15625 9.601562 4.15625 9.632812 C 4.132812 10.066406 4.148438 10.5 4.199219 10.933594 C 4.199219 10.933594 4.199219 10.9375 4.199219 10.9375 C 4.230469 11.195312 4.277344 11.453125 4.335938 11.710938 C 4.34375 11.738281 4.347656 11.761719 4.355469 11.789062 C 4.414062 12.035156 4.484375 12.28125 4.566406 12.523438 C 4.578125 12.554688 4.589844 12.585938 4.601562 12.617188 C 4.6875 12.863281 4.785156 13.109375 4.898438 13.355469 C 5.210938 14.023438 5.296875 14.738281 5.140625 15.367188 C 5.125 15.433594 5.105469 15.492188 5.085938 15.554688 C 5.0625 15.640625 5.039062 15.722656 5.011719 15.804688 C 4.984375 15.878906 4.949219 15.953125 4.917969 16.027344 C 4.890625 16.089844 4.867188 16.152344 4.835938 16.214844 C 4.796875 16.300781 4.746094 16.378906 4.703125 16.460938 C 4.675781 16.507812 4.648438 16.558594 4.621094 16.605469 C 4.566406 16.691406 4.503906 16.773438 4.441406 16.855469 C 4.414062 16.890625 4.390625 16.929688 4.363281 16.96875 C 4.289062 17.058594 4.210938 17.144531 4.132812 17.226562 C 4.105469 17.253906 4.082031 17.285156 4.058594 17.3125 C 3.972656 17.398438 3.878906 17.480469 3.78125 17.5625 C 3.753906 17.585938 3.734375 17.613281 3.707031 17.632812 C 3.59375 17.730469 3.472656 17.820312 3.34375 17.910156 C 3.332031 17.917969 3.320312 17.929688 3.304688 17.9375 C 3.164062 18.039062 3.015625 18.132812 2.859375 18.226562 C 2.398438 18.5 1.796875 18.871094 1.222656 19.308594 L 0.585938 19.800781 C 0.320312 20.007812 0.152344 20.316406 0.128906 20.65625 C 0.109375 20.992188 0.234375 21.324219 0.472656 21.5625 L 2.566406 23.65625 C 2.789062 23.878906 3.085938 24 3.398438 24 C 3.425781 24 3.453125 24 3.484375 23.996094 C 3.824219 23.972656 4.136719 23.800781 4.339844 23.527344 L 5 22.640625 C 5.1875 22.382812 5.378906 22.105469 5.570312 21.800781 C 5.699219 21.59375 5.832031 21.378906 5.96875 21.144531 C 6.058594 20.988281 6.148438 20.839844 6.246094 20.699219 C 6.613281 20.15625 7.019531 19.734375 7.484375 19.417969 C 7.5 19.40625 7.515625 19.394531 7.53125 19.382812 C 7.617188 19.324219 7.707031 19.277344 7.796875 19.226562 C 7.832031 19.207031 7.867188 19.183594 7.902344 19.164062 C 7.984375 19.121094 8.066406 19.089844 8.148438 19.050781 C 8.199219 19.03125 8.25 19.003906 8.300781 18.984375 C 8.371094 18.957031 8.449219 18.9375 8.523438 18.910156 C 8.589844 18.890625 8.652344 18.867188 8.722656 18.847656 C 9.355469 18.675781 9.957031 18.777344 10.421875 18.933594 C 10.527344 18.96875 10.628906 19.007812 10.71875 19.046875 C 10.722656 19.046875 10.726562 19.046875 10.730469 19.050781 C 10.910156 19.125 11.089844 19.195312 11.269531 19.257812 C 11.3125 19.273438 11.359375 19.289062 11.40625 19.304688 C 11.574219 19.359375 11.742188 19.410156 11.910156 19.457031 C 11.925781 19.460938 11.941406 19.464844 11.957031 19.46875 C 12.707031 19.660156 13.464844 19.738281 14.21875 19.699219 C 14.242188 19.695312 14.261719 19.6875 14.285156 19.683594 C 16.394531 19.546875 18.480469 18.511719 20.382812 16.609375 C 24.550781 12.445312 25.0625 5.917969 21.5 2.359375 Z M 5.339844 2.082031 C 5.945312 1.476562 6.75 1.144531 7.605469 1.144531 C 8.460938 1.144531 9.265625 1.476562 9.867188 2.082031 C 11.117188 3.332031 11.117188 5.363281 9.867188 6.613281 C 9.792969 6.6875 9.710938 6.757812 9.628906 6.828125 C 9.601562 6.851562 9.570312 6.871094 9.539062 6.894531 C 9.488281 6.933594 9.433594 6.976562 9.378906 7.011719 C 9.339844 7.039062 9.300781 7.058594 9.261719 7.082031 C 9.210938 7.113281 9.164062 7.144531 9.109375 7.171875 C 9.066406 7.195312 9.023438 7.214844 8.980469 7.234375 C 8.929688 7.257812 8.882812 7.28125 8.832031 7.304688 C 8.785156 7.324219 8.738281 7.339844 8.691406 7.355469 C 8.640625 7.375 8.59375 7.390625 8.546875 7.40625 C 8.496094 7.421875 8.445312 7.433594 8.394531 7.445312 C 8.347656 7.457031 8.300781 7.472656 8.253906 7.480469 C 8.199219 7.492188 8.144531 7.5 8.09375 7.507812 C 8.046875 7.515625 8.003906 7.523438 7.957031 7.527344 C 7.902344 7.535156 7.84375 7.535156 7.785156 7.539062 C 7.742188 7.542969 7.703125 7.542969 7.664062 7.546875 C 7.597656 7.546875 7.535156 7.542969 7.472656 7.542969 C 7.4375 7.539062 7.402344 7.539062 7.367188 7.535156 C 7.296875 7.53125 7.230469 7.523438 7.160156 7.515625 C 7.132812 7.511719 7.105469 7.507812 7.074219 7.5 C 7 7.488281 6.925781 7.472656 6.851562 7.457031 C 6.832031 7.449219 6.8125 7.445312 6.789062 7.441406 C 6.710938 7.417969 6.628906 7.394531 6.550781 7.367188 C 6.539062 7.363281 6.523438 7.359375 6.511719 7.351562 C 6.425781 7.320312 6.339844 7.289062 6.257812 7.25 C 6.25 7.246094 6.246094 7.242188 6.242188 7.242188 C 5.96875 7.113281 5.710938 6.945312 5.476562 6.734375 L 5.386719 6.65625 C 5.371094 6.640625 5.355469 6.628906 5.339844 6.613281 C 4.089844 5.363281 4.089844 3.332031 5.339844 2.082031 Z M 3.699219 23.046875 C 3.632812 23.136719 3.535156 23.191406 3.425781 23.199219 C 3.316406 23.207031 3.210938 23.167969 3.132812 23.089844 L 1.039062 20.996094 C 0.960938 20.917969 0.921875 20.816406 0.929688 20.707031 C 0.9375 20.597656 0.988281 20.5 1.074219 20.433594 L 1.710938 19.945312 C 2.25 19.53125 2.828125 19.175781 3.269531 18.914062 C 3.628906 18.703125 3.953125 18.472656 4.242188 18.230469 C 4.386719 18.105469 4.519531 17.980469 4.648438 17.851562 C 4.660156 17.839844 4.667969 17.824219 4.679688 17.816406 C 4.792969 17.695312 4.902344 17.570312 5.003906 17.445312 C 5.019531 17.425781 5.03125 17.402344 5.046875 17.382812 C 5.140625 17.261719 5.226562 17.140625 5.308594 17.011719 C 5.328125 16.984375 5.34375 16.949219 5.359375 16.917969 C 5.429688 16.796875 5.5 16.679688 5.5625 16.554688 C 5.578125 16.515625 5.59375 16.476562 5.609375 16.4375 C 5.664062 16.316406 5.71875 16.195312 5.765625 16.070312 C 5.78125 16.027344 5.792969 15.980469 5.804688 15.9375 C 5.847656 15.816406 5.886719 15.691406 5.917969 15.5625 C 5.921875 15.558594 5.921875 15.554688 5.921875 15.554688 C 5.921875 15.554688 5.921875 15.550781 5.921875 15.550781 C 6.121094 14.738281 6.019531 13.863281 5.625 13.019531 C 5.582031 12.917969 5.546875 12.820312 5.503906 12.722656 C 5.1875 11.957031 4.996094 11.183594 4.953125 10.402344 L 13.445312 18.894531 C 13.445312 18.894531 13.441406 18.894531 13.441406 18.894531 C 13.25 18.882812 13.0625 18.863281 12.871094 18.835938 C 12.859375 18.835938 12.84375 18.832031 12.828125 18.832031 C 12.648438 18.804688 12.46875 18.765625 12.289062 18.726562 C 12.269531 18.71875 12.246094 18.714844 12.222656 18.710938 C 12.050781 18.667969 11.875 18.617188 11.703125 18.558594 C 11.675781 18.550781 11.652344 18.542969 11.625 18.535156 C 11.429688 18.46875 11.234375 18.394531 11.039062 18.308594 C 10.753906 18.1875 10.464844 18.097656 10.183594 18.039062 C 10.144531 18.03125 10.109375 18.019531 10.070312 18.015625 C 10.035156 18.007812 10 18.003906 9.964844 18 C 9.890625 17.988281 9.820312 17.976562 9.75 17.972656 C 9.738281 17.96875 9.722656 17.96875 9.710938 17.96875 C 9.617188 17.960938 9.523438 17.957031 9.433594 17.953125 C 9.429688 17.953125 9.425781 17.957031 9.425781 17.957031 C 9.320312 17.953125 9.21875 17.957031 9.121094 17.964844 C 9.089844 17.96875 9.0625 17.972656 9.035156 17.976562 C 8.960938 17.984375 8.886719 17.992188 8.8125 18.007812 C 8.730469 18.019531 8.648438 18.039062 8.566406 18.0625 C 8.546875 18.066406 8.53125 18.066406 8.511719 18.074219 C 8.511719 18.074219 8.511719 18.074219 8.507812 18.074219 C 8.351562 18.117188 8.195312 18.167969 8.046875 18.222656 C 8.035156 18.226562 8.023438 18.230469 8.011719 18.234375 C 7.863281 18.292969 7.722656 18.355469 7.582031 18.425781 C 7.570312 18.433594 7.554688 18.4375 7.542969 18.445312 C 7.410156 18.511719 7.285156 18.589844 7.160156 18.667969 C 7.140625 18.679688 7.121094 18.6875 7.101562 18.699219 C 6.972656 18.785156 6.847656 18.878906 6.726562 18.976562 C 6.714844 18.988281 6.699219 18.996094 6.6875 19.003906 C 6.15625 19.445312 5.6875 20.019531 5.273438 20.746094 C 4.957031 21.292969 4.65625 21.757812 4.355469 22.160156 Z M 14.546875 18.867188 C 14.546875 18.863281 14.542969 18.859375 14.539062 18.855469 L 4.996094 9.3125 C 4.996094 9.3125 4.992188 9.3125 4.992188 9.308594 C 5.054688 8.765625 5.179688 8.21875 5.378906 7.675781 C 5.570312 7.800781 5.769531 7.910156 5.972656 8 C 5.980469 8.003906 5.988281 8.007812 6 8.011719 C 6.085938 8.050781 6.175781 8.085938 6.269531 8.117188 C 6.292969 8.125 6.316406 8.132812 6.34375 8.144531 C 6.425781 8.167969 6.507812 8.195312 6.59375 8.214844 C 6.628906 8.226562 6.660156 8.234375 6.695312 8.242188 C 6.773438 8.257812 6.851562 8.277344 6.933594 8.289062 C 6.972656 8.296875 7.015625 8.300781 7.058594 8.308594 C 7.132812 8.316406 7.207031 8.328125 7.28125 8.335938 C 7.328125 8.339844 7.378906 8.339844 7.425781 8.339844 C 7.484375 8.34375 7.542969 8.347656 7.605469 8.347656 C 7.617188 8.347656 7.625 8.347656 7.636719 8.347656 C 7.699219 8.347656 7.761719 8.34375 7.824219 8.339844 C 7.921875 8.332031 8.019531 8.324219 8.121094 8.3125 C 8.191406 8.304688 8.265625 8.292969 8.339844 8.28125 C 8.390625 8.269531 8.441406 8.257812 8.492188 8.246094 C 8.558594 8.230469 8.628906 8.214844 8.695312 8.195312 C 8.746094 8.183594 8.796875 8.164062 8.847656 8.148438 C 8.914062 8.128906 8.980469 8.105469 9.042969 8.082031 C 9.09375 8.0625 9.144531 8.039062 9.191406 8.019531 C 9.257812 7.992188 9.320312 7.960938 9.386719 7.929688 C 9.433594 7.90625 9.480469 7.882812 9.527344 7.855469 C 9.589844 7.820312 9.65625 7.78125 9.71875 7.742188 C 9.761719 7.714844 9.804688 7.691406 9.84375 7.664062 C 9.914062 7.617188 9.980469 7.566406 10.050781 7.511719 C 10.082031 7.488281 10.117188 7.464844 10.148438 7.4375 C 10.25 7.355469 10.34375 7.269531 10.4375 7.175781 C 10.53125 7.085938 10.617188 6.984375 10.699219 6.886719 C 10.726562 6.851562 10.753906 6.8125 10.78125 6.777344 C 10.832031 6.710938 10.882812 6.644531 10.929688 6.578125 C 10.960938 6.53125 10.984375 6.484375 11.011719 6.441406 C 11.050781 6.378906 11.089844 6.316406 11.125 6.25 C 11.152344 6.199219 11.175781 6.148438 11.199219 6.097656 C 11.230469 6.039062 11.261719 5.976562 11.289062 5.910156 C 11.3125 5.859375 11.332031 5.804688 11.351562 5.75 C 11.375 5.6875 11.394531 5.625 11.417969 5.5625 C 11.433594 5.503906 11.449219 5.449219 11.464844 5.390625 C 11.484375 5.328125 11.496094 5.265625 11.511719 5.207031 C 11.523438 5.144531 11.535156 5.085938 11.546875 5.027344 C 11.558594 4.964844 11.566406 4.902344 11.574219 4.84375 C 11.582031 4.78125 11.585938 4.71875 11.59375 4.65625 C 11.597656 4.597656 11.597656 4.539062 11.601562 4.480469 C 11.601562 4.414062 11.605469 4.351562 11.605469 4.285156 C 11.605469 4.230469 11.601562 4.175781 11.597656 4.117188 C 11.59375 4.050781 11.589844 3.984375 11.582031 3.917969 C 11.578125 3.867188 11.566406 3.816406 11.5625 3.761719 C 11.550781 3.691406 11.539062 3.621094 11.527344 3.550781 C 11.519531 3.511719 11.507812 3.476562 11.5 3.441406 C 11.4375 3.164062 11.34375 2.894531 11.21875 2.632812 C 11.203125 2.597656 11.1875 2.558594 11.167969 2.519531 C 11.132812 2.453125 11.09375 2.390625 11.054688 2.324219 C 11.027344 2.28125 11.003906 2.234375 10.976562 2.191406 C 10.9375 2.132812 10.894531 2.074219 10.855469 2.015625 C 10.832031 1.980469 10.808594 1.945312 10.78125 1.914062 C 14.402344 0.113281 18.515625 0.507812 20.933594 2.925781 C 24.1875 6.175781 23.675781 12.183594 19.816406 16.042969 C 18.136719 17.726562 16.355469 18.671875 14.546875 18.867188 Z M 14.546875 18.867188"/>
    <path d="M 6.003906 4.347656 C 6.003906 3.464844 6.722656 2.746094 7.605469 2.746094 C 7.824219 2.746094 8.003906 2.566406 8.003906 2.34375 C 8.003906 2.121094 7.824219 1.945312 7.605469 1.945312 C 6.277344 1.945312 5.203125 3.019531 5.203125 4.347656 C 5.203125 4.566406 5.378906 4.746094 5.601562 4.746094 C 5.824219 4.746094 6.003906 4.566406 6.003906 4.347656 Z M 6.003906 4.347656"/>
</svg>

<svg xmlns="http://www.w3.org/2000/svg" width="32" height="32" viewBox="0 0 24 24">
    <path d="M21.5 2.36C18.793-.353 14.187-.763 10.21 1.312a3.976 3.976 0 0 0-2.605-.97c-1.07 0-2.078.415-2.832 1.173a4.007 4.007 0 0 0-.035 5.625 7.813 7.813 0 0 0-.562 2.402c-.008.031-.02.059-.02.09-.023.433-.008.867.043 1.3v.005c.031.257.078.515.137.773.008.027.012.05.02.078.058.246.128.492.21.734l.036.094c.085.246.183.492.296.738.313.668.399 1.383.243 2.012-.016.067-.036.125-.055.188a4.67 4.67 0 0 1-.074.25c-.028.074-.063.148-.094.222-.027.063-.05.125-.082.188-.04.086-.09.164-.133.246l-.082.144a3.666 3.666 0 0 1-.18.25c-.027.036-.05.075-.078.114a4.91 4.91 0 0 1-.23.258c-.028.027-.051.058-.074.085-.086.086-.18.168-.278.25-.027.024-.047.051-.074.07a4.44 4.44 0 0 1-.363.278c-.012.008-.024.02-.04.027a6.24 6.24 0 0 1-.445.29c-.46.273-1.062.644-1.636 1.082l-.637.492a1.187 1.187 0 0 0-.457.855c-.02.336.105.668.344.907l2.093 2.093c.223.223.52.344.832.344.028 0 .055 0 .086-.004.34-.023.653-.195.856-.469l.66-.886c.188-.258.379-.536.57-.84.13-.207.262-.422.399-.656.09-.157.18-.305.277-.446.367-.543.774-.965 1.238-1.281l.047-.035c.086-.059.176-.106.266-.156l.105-.063c.082-.043.164-.074.246-.113.051-.02.102-.047.153-.067.07-.027.148-.047.222-.074.067-.02.13-.043.2-.062.632-.172 1.234-.07 1.699.086a3.648 3.648 0 0 1 .308.117c.18.074.36.144.54.207l.136.047a12.355 12.355 0 0 0 .551.164c.75.191 1.508.27 2.262.23.023-.004.043-.012.066-.015 2.11-.137 4.195-1.172 6.098-3.075 4.168-4.164 4.68-10.691 1.117-14.25zM5.34 2.081a3.182 3.182 0 0 1 2.265-.937c.856 0 1.66.332 2.262.937a3.206 3.206 0 0 1 0 4.531c-.074.074-.156.145-.238.215-.027.024-.059.043-.09.067-.05.039-.105.082-.16.117-.04.027-.078.047-.117.07-.051.031-.098.063-.153.09a1.947 1.947 0 0 1-.129.062c-.05.024-.097.047-.148.07-.047.02-.094.036-.14.051a2.18 2.18 0 0 1-.297.09c-.047.012-.094.028-.141.035-.055.012-.11.02-.16.028-.047.008-.09.015-.137.02-.055.007-.113.007-.172.011-.043.004-.082.004-.12.008-.067 0-.13-.004-.192-.004-.035-.004-.07-.004-.106-.008-.07-.004-.137-.012-.207-.02a4.47 4.47 0 0 1-.309-.059.293.293 0 0 0-.062-.015c-.078-.023-.16-.046-.238-.074-.012-.004-.028-.008-.04-.015a2.866 2.866 0 0 1-.253-.102c-.008-.004-.012-.008-.016-.008a3.144 3.144 0 0 1-.765-.508l-.09-.078c-.016-.015-.032-.027-.047-.043a3.206 3.206 0 0 1 0-4.531zM3.7 23.047a.374.374 0 0 1-.566.043l-2.095-2.094a.374.374 0 0 1 .035-.563l.637-.488c.539-.414 1.117-.77 1.559-1.03.359-.212.683-.442.972-.685.145-.125.278-.25.406-.378.012-.012.02-.028.032-.036.113-.12.222-.246.324-.37.016-.02.027-.044.043-.063.094-.121.18-.242.262-.371.02-.028.035-.063.05-.094.07-.121.141-.238.204-.363l.046-.117c.055-.122.11-.243.157-.368.015-.043.027-.09.039-.133.043-.12.082-.246.113-.374.004-.004.004-.008.004-.008v-.004c.2-.813.098-1.688-.297-2.531-.043-.102-.078-.2-.121-.297a7.08 7.08 0 0 1-.55-2.32l8.491 8.492h-.004a7.052 7.052 0 0 1-.57-.06c-.012 0-.027-.003-.043-.003a8.746 8.746 0 0 1-.605-.121 6.52 6.52 0 0 1-.52-.152l-.078-.024a7.225 7.225 0 0 1-.586-.226 4.598 4.598 0 0 0-.855-.27c-.04-.008-.075-.02-.114-.023A.981.981 0 0 0 9.965 18c-.074-.012-.145-.023-.215-.027-.012-.004-.027-.004-.04-.004-.093-.008-.187-.012-.276-.016-.004 0-.008.004-.008.004a2.6 2.6 0 0 0-.305.008l-.086.012c-.074.007-.148.015-.223.03a1.854 1.854 0 0 0-.246.055c-.02.004-.035.004-.054.012h-.004a5.772 5.772 0 0 0-.461.149l-.035.011c-.149.059-.29.121-.43.192-.012.008-.027.012-.039.02-.133.066-.258.144-.383.222-.02.012-.039.02-.058.031-.13.086-.254.18-.375.278-.012.011-.028.02-.04.027-.53.441-1 1.016-1.414 1.742a14.409 14.409 0 0 1-.918 1.414zm10.847-4.18c0-.004-.004-.008-.008-.012L4.996 9.312s-.004 0-.004-.003c.063-.543.188-1.09.387-1.633.191.125.39.234.594.324a2.76 2.76 0 0 0 .297.117.899.899 0 0 1 .074.028c.082.023.164.05.25.07.035.012.066.02.101.027.078.016.157.035.239.047.039.008.082.012.125.02.074.007.148.02.222.027.047.004.098.004.145.004.058.004.117.008.18.008h.03c.063 0 .126-.004.188-.008.098-.008.196-.016.297-.027.07-.008.145-.02.219-.032l.152-.035c.067-.016.137-.031.203-.05.051-.012.102-.032.153-.048.066-.02.132-.043.195-.066l.148-.062c.067-.028.13-.06.196-.09.047-.024.093-.047.14-.075.063-.035.13-.074.192-.113.043-.027.086-.05.125-.078a3.5 3.5 0 0 0 .207-.152c.031-.024.066-.047.097-.074a3.64 3.64 0 0 0 .29-.262c.093-.09.18-.192.261-.29.028-.034.055-.074.082-.109a6.57 6.57 0 0 0 .149-.199c.03-.047.054-.094.082-.137.039-.062.078-.125.113-.191.027-.05.05-.102.074-.152a2.09 2.09 0 0 0 .09-.188c.024-.05.043-.105.063-.16l.066-.188.047-.171c.02-.063.031-.125.047-.184.011-.062.023-.121.035-.18.012-.062.02-.125.027-.183.008-.063.012-.125.02-.188.004-.058.004-.117.008-.176 0-.066.003-.128.003-.195 0-.055-.003-.11-.007-.168a3.418 3.418 0 0 0-.016-.199c-.004-.05-.016-.102-.02-.156l-.035-.211c-.007-.04-.02-.074-.027-.11a3.82 3.82 0 0 0-.281-.808c-.016-.035-.031-.074-.051-.113-.035-.067-.074-.13-.113-.196-.028-.043-.051-.09-.078-.133l-.122-.175c-.023-.036-.046-.07-.074-.102 3.621-1.8 7.735-1.406 10.153 1.012 3.253 3.25 2.742 9.258-1.118 13.117-1.68 1.684-3.46 2.629-5.27 2.824zm0 0"/>
    <path d="M6.004 4.348c0-.883.719-1.602 1.601-1.602a.401.401 0 0 0 0-.8 2.4 2.4 0 0 0-2.402 2.402.401.401 0 0 0 .8 0zm0 0"/>
</svg>
